!!!COM: Bach, Johann Sebastian
!!!OTL@@DE: 50. In allen meinen Taten
!!!OTL@EN: In all my deeds
!!!SCA: 244.37
**harm	**root	**kern	**kern	**kern	**kern
*staff2	*	*staff2	*staff2	*staff1	*staff1
*Iorgan	*Iorgan	*Iorgan	*Iorgan	*Iorgan	*Iorgan
!	!	!bass	!tenor	!alto	!sprno
*	*	*clefF4	*clefF4	*clefG2	*clefG2
*k[f#c#g#]	*k[f#c#g#]	*k[f#c#g#]	*k[f#c#g#]	*k[f#c#g#]	*k[f#c#g#]
*met(c)	*met(c)	*met(c)	*met(c)	*met(c)	*met(c)
*A:	*A:	*A:	*A:	*A:	*A:
*M4/4	*M4/4	*M4/4	*M4/4	*M4/4	*M4/4
*MM60	*MM60	*MM60	*MM60	*MM60	*MM60
I	4FF	4A	4e	4a	4cc#
=1	=1	=1	=1	=1	=1
IV	4BB-	4d	4f#	4f#	4a
viiob	4EE	8c#L	8eL	4g#	4b
.	.	8BJ	8dJ	.	.
I	2FF	4.A	4.c#	8aL	(8cc#L
.	.	.	.	8bJ	8ddJ
.	.	.	.	4cc#	4ee)
.	.	8G#	8B	.	.
=2	=2	=2	=2	=2	=2
IV7b	4BB-	4F#	4A	4cc#	2dd
V7b	4CC	4G#	4e	4b	.
I;	4FF;	4A;	4e;	4a;	4cc#;
I	4FF	8AL	4e	4a	8cc#L
.	.	8BJ	.	.	8ddJ
=3	=3	=3	=3	=3	=3
Ib	4FF	4c#	4e	8aL	4ee
.	.	.	.	8g#J	.
Ib	4FF	8C#L	4e	8aL	4ee
.	.	8DJ	.	8bJ	.
V	4CC	4E	4e	8g#L	4b
.	.	.	.	8f#J	.
iiib	4AA	4C#	8eL	4e	(8cc#L
.	.	.	8d#J	.	8bJ
=4	=4	=4	=4	=4	=4
viio/V	2BB	2F#	8c#L	4e	2a)
.	.	.	8BJ	.	.
.	.	.	4A	4d#	.
V;	4CC;	4E;	4B;	4e;	4g#;
V7	4CC	4E	4dy	4g#	4e
=5	=5	=5	=5	=5	=5
vi	4DD	4F#	4c#	4f#	4a
Vb	4CC	4G#	4B	4e	4b
I	4FF	4A	4A	4e	8cc#L
.	.	.	.	.	16ddL
.	.	.	.	.	16eeJJ
IV	4BB-	4D	4A	4f#	8ddL
.	.	.	.	.	8cc#J
=6	=6	=6	=6	=6	=6
V;	2.CC;	2.E;	2.e;	2.g#;	2.b;
Vb/VI	4AA	4E#	4c#	4g#	4cc#
=7	=7	=7	=7	=7	=7
!!linebreak: 2
vi	4DD	4F#	4c#	4f#	4a
Vb	4CC	4G#	4B	4e	4b
I	4FF	4A	8AL	4e	8cc#L
.	.	.	8BJ	.	8ddJ
V7b/II	4DD	4A#	4c#	4f#	4ee
=8	=8	=8	=8	=8	=8
ii	2GG	4B	8BL	4f#	2dd
.	.	.	8c#J	.	.
.	.	4BB	8dL	4b	.
.	.	.	8eJ	.	.
V/II;	4DD;	4F#;	4f#;	4a#;	4cc#;
vi	4DD	4f#	4f#	4a	8cc#L
.	.	.	.	.	8ddJ
=9	=9	=9	=9	=9	=9
Ib	4FF	8c#L	8eL	4a	4ee
.	.	8B	8d	.	.
Ib	4FF	8c#	8e	4a	4ee
.	.	8dJ	8f#J	.	.
V	4CC	4e	4g#	8g#L	4b
.	.	.	.	8f#J	.
I	4FF	8AL	4a	4e	(8cc#L
.	.	8G#J	.	.	8bJ
=10	=10	=10	=10	=10	=10
vi7	4DD	8F#L	8AL	4e	2a)
.	.	8EJ	8c#J	.	.
V7c/V	4GG	4F#	8BL	4d#	.
.	.	.	8AJ	.	.
V;	4CC;	4E;	4B;	4e;	4g#;
V7c	4CC	4D	4G#	4B	4e
=11	=11	=11	=11	=11	=11
Ib	4FF	4C#	8AL	4e	4a
.	.	.	8eJ	.	.
ii	4GG	4BB	8f#L	4d	4b
.	.	.	8g#J	.	.
I	4FF	4AA	8aL	8c#L	4cc#
.	.	.	8eJ	8eJ	.
IV7b	4BB-	4F#	8dL	4a	8bL
.	.	.	8AJ	.	16cc#L
.	.	.	.	.	16ddJJ
=12	=12	=12	=12	=12	=12
Ic	4FF	8EL	4.e	4a	4cc#
.	.	8DJ	.	.	.
V7	4CC	4E	.	4g#	4b
.	.	.	8d	.	.
I;	4FF;	4AA;	4c#;	4e;	4a;
==	==	==	==	==	==
*-	*-	*-	*-	*-	*-
!!!ENC: Craig Stuart Sapp
!!!END: 2004/12/06/
!!!ONB: Harmony and Root analysis done manually by Craig Sapp
!!chor2scor: -l 2 -s 0.6 -o %b.pmx
